icons/star-half-fill-17.svg

<svg width="16" height="17" viewBox="0 0 16 17" fill="none" xmlns="http://www.w3.org/2000/svg">
<path fill-rule="evenodd" clip-rule="evenodd" d="M7.99923 2.43091C7.88582 2.43084 7.77467 2.46251 7.67834 2.52234C7.582 2.58217 7.50435 2.66777 7.45415 2.76945L5.92989 5.8593L2.52013 6.35497C2.40795 6.37126 2.30258 6.41859 2.216 6.49162C2.12934 6.56464 2.06479 6.66045 2.0298 6.76821C1.99473 6.87598 1.99052 6.9914 2.01765 7.10143C2.04471 7.21146 2.10205 7.31171 2.1832 7.39086L4.65022 9.79632L4.06788 13.1915C4.04869 13.3032 4.06108 13.418 4.10376 13.5231C4.14645 13.6281 4.21764 13.7191 4.30932 13.7857C4.401 13.8524 4.50953 13.8921 4.6226 13.9003C4.73566 13.9084 4.84873 13.8849 4.94908 13.8321L7.99923 12.2285L11.0494 13.8321C11.1497 13.8848 11.2627 13.9084 11.3756 13.9002C11.4886 13.892 11.597 13.8524 11.6887 13.7859C11.7803 13.7193 11.8515 13.6285 11.8943 13.5236C11.937 13.4187 11.9496 13.304 11.9306 13.1923L11.3474 9.79551L13.8161 7.39086C13.8974 7.31174 13.955 7.21143 13.9822 7.10128C14.0095 6.99114 14.0053 6.87556 13.9703 6.76765C13.9352 6.65973 13.8706 6.5638 13.7838 6.49072C13.697 6.41764 13.5915 6.37033 13.4791 6.35416L10.0694 5.8593L8.5443 2.76945C8.4941 2.66777 8.41644 2.58217 8.32011 2.52234C8.22378 2.46251 8.11262 2.43084 7.99923 2.43091ZM7.99933 4.41113L9.12107 6.68296C9.16462 6.77116 9.22896 6.84746 9.30852 6.9053C9.3881 6.96315 9.48052 7.0008 9.57786 7.01502L12.0862 7.37949L10.272 9.14835C10.2014 9.21708 10.1486 9.30195 10.1181 9.39565C10.0876 9.48934 10.0804 9.58903 10.097 9.68614L10.5247 12.1839C9.64923 11.7383 8.85242 11.3483 7.99933 10.935V4.41113Z" fill="#272431"/>
</svg>

<svg xmlns="http://www.w3.org/2000/svg" width="16" height="17" viewBox="0 0 16 17"><path fill-rule="evenodd" d="M8 2.43a.607.607 0 00-.546.34L5.93 5.86l-3.41.495a.607.607 0 00-.337 1.036L4.65 9.796l-.582 3.396a.608.608 0 00.881.64L8 12.228l3.05 1.604a.607.607 0 00.882-.64l-.584-3.396 2.47-2.405a.607.607 0 00-.338-1.037l-3.41-.495-1.525-3.09A.607.607 0 008 2.431zm0 1.981l1.12 2.272a.607.607 0 00.457.332l2.508.364-1.814 1.77a.608.608 0 00-.175.537l.428 2.498a136.52 136.52 0 00-2.526-1.249V4.411z"/></svg>
